X: 36821
T: Shields Fair
R: hornpipe
M: 4/4
K: Gmajor
|:de/f/|g2GB dBGB|c2 B2 B2de/f/|g2GB dBGB|c2 A2 A2 de/f/|
g2GB dBGB|c2B2 e3d|cBAG Eedc|B2G2G2:|
|:AG|FDDA ADDB|BDDB c2BA|BGGB cAAc|dBdB e2dc|
BggB AffA|GeeG FddF|Eedc BAGF|A2G2G2:|

